X:1
T:Hit or Miss -- Reel
R:reel
N:137
B:Ryan's Mammoth Collection
Z: Contributed by Ray Davies,  ray:davies99.freeserve.co.uk
M:2/4
L:1/16
K:C
uG2|\
cdef gagc | acgc fedc | AcGc ecac | fedc Adde |
cdef gagc | acgc fedc | AcBc ecag | gfde c2  ::
u(ef)|\
gage fedc | cdec dcAc  | Gcec acgc | fedc Adde |
fefa gedc | agab c'gec | dcde fefa | gfde c2 :|
